Sources/FrostedUI/Resources/Icons.xcassets/youtubeSize16.imageset/youtube-size-16.svg

<svg
  width="16"
  height="16"
  viewBox="0 0 16 16"
  fill="none"
  xmlns="http://www.w3.org/2000/svg"
  data-fui-icon="true"
>
  <path
    clip-rule="evenodd"
    d="M13.4695 2.67185C14.0723 2.85843 14.5459 3.40618 14.7073 4.10318C14.9988 5.36525 15 8.00001 15 8.00001C15 8.00001 15 10.6348 14.7073 11.8969C14.5459 12.5939 14.0723 13.1416 13.4695 13.3281C12.3782 13.6667 8 13.6667 8 13.6667C8 13.6667 3.62183 13.6667 2.53045 13.3281C1.92773 13.1416 1.45407 12.5939 1.29272 11.8969C1 10.6348 1 8.00001 1 8.00001C1 8.00001 1 5.36525 1.29272 4.10318C1.45407 3.40618 1.92773 2.85843 2.53045 2.67185C3.62183 2.33334 8 2.33334 8 2.33334C8 2.33334 12.3782 2.33334 13.4695 2.67185ZM10.0922 7.85587C10.2034 7.92002 10.2034 8.0804 10.0922 8.14455L6.78189 10.0556C6.67078 10.1198 6.5319 10.0396 6.5319 9.91128V6.08911C6.5319 5.96081 6.67078 5.88062 6.7819 5.94477L10.0922 7.85587Z"
    stroke="currentColor"
    stroke-width="1.5"
  />
</svg>

<svg xmlns="http://www.w3.org/2000/svg" width="16" height="16" fill="none" data-fui-icon="true" viewBox="0 0 16 16"><path stroke="currentColor" stroke-width="1.5" d="M13.47 2.672c.602.186 1.076.734 1.237 1.431C15 5.365 15 8 15 8s0 2.635-.293 3.897c-.161.697-.635 1.245-1.238 1.431-1.09.339-5.469.339-5.469.339s-4.378 0-5.47-.339c-.602-.186-1.076-.734-1.237-1.431C1 10.635 1 8 1 8s0-2.635.293-3.897c.161-.697.635-1.245 1.237-1.431C3.622 2.333 8 2.333 8 2.333s4.378 0 5.47.339Zm-3.378 5.184a.167.167 0 0 1 0 .289l-3.31 1.91a.167.167 0 0 1-.25-.144V6.09c0-.128.139-.208.25-.144z" clip-rule="evenodd"/></svg>
